X: 9180
T:Schottisch
C:G.Chabenat
O:France
S:transcription CD "Bleu Nuit"
Z:abc transcription Simon Wascher
N:please mail errors to: simon.wascher@chello.at
M:2/4
L:1/16
K:G
dc|B2G2 E2AG|F2A2 D2GA|B2cB A2dA|FGAF D2dc|
B2G2 E2AG|F2A2 D2FG|BGFG EABc|AFED G2:|
|:D2|Bcde d2cB|ABcd FEFA|GABc FGAF|DFEDd4|
Bcde d2cB|ABcd FEFA|GABc ABcd|AdFDG4:|
